X:50
T:Jim Ward's
R:jig
M:6/8
L:1/8
K:G
EF | G3 GAB | AGE GED | G3 AGE | GED DEF |
G3 GAB | AGE GAB | cBA BGE |1 DED D :|2 DED D2 |:
B | cBA BAG | A3 AGE | cBA BGE | DED D2B |
cBA BAG | A3 ABc | dcB AGE |1 GED D2 :|2 GED D |]
